src/assets/icons/calendar_icon.svg

<svg fill="none" height="24" viewBox="0 0 24 24" width="24" xmlns="http://www.w3.org/2000/svg"><g fill="#000"><path d="m9.5387 11.5605c.4825 0 .9126.0908 1.2832.2793.3684.1842.6601.4371.8672.7588.2064.3209.3103.6766.3105 1.0625l-.0058.1592c-.0266.3632-.1542.6808-.3867.9453l.0009.001c-.1344.1541-.2915.2783-.4677.376.2681.1039.4951.258.6767.4629l.1045.1269c.2256.3051.335.6694.333 1.083l-.0058.1573c-.0267.3635-.1465.6963-.3604.9931l-.001-.001c-.2399.3339-.5683.5927-.9785.7774-.4101.1856-.8756.2754-1.39061.2754-.50556-.0001-.96325-.0863-1.36817-.2647-.40137-.1779-.72604-.4296-.96582-.7558-.12896-.1756-.22654-.3666-.29101-.5723-.06536-.2087-.00503-.4084.12012-.5488.12254-.1373.30742-.2206.5039-.2207h.27246c.19185 0 .3528.0825.47852.1836.12423.1.22564.2276.30566.3418.00795.0113.01652.0231.02539.0341.08797.1074.20918.1956.36817.2608.1581.0647.33994.0996.54785.0996.22264 0 .41222-.0389.57224-.1104.1604-.0738.2789-.1728.3633-.2939.0819-.1177.1239-.2542.1221-.417v-.0039c.0018-.1699-.0409-.3126-.125-.4346-.0636-.0921-.1512-.1731-.2666-.2402l-.125-.0625c-.17425-.0757-.39425-.1172-.66506-.1172h-.12793c-.37492-.0004-.67952-.3047-.67969-.6797 0-.3751.30467-.6793.67969-.6797h.12793c.216 0 .39555-.0374.54296-.1054l.00098-.001c.15132-.0691.26432-.1633.34472-.2803.0774-.1151.1171-.25.1152-.4111v-.0039c.0019-.1623-.0343-.2925-.1005-.3985l-.002-.0029c-.0664-.1106-.1609-.1981-.29-.2627l-.001-.001c-.12546-.0635-.28032-.0986-.46974-.0986-.18518.0001-.35292.0331-.50488.0977-.15028.0639-.26674.153-.35352.2646l-.00097.001c-.00811.0103-.01616.0207-.02344.0312-.08002.116-.18177.2483-.30664.3516-.12619.1043-.28868.1894-.48438.1894h-.20215c-.19492-.0001-.37837-.082-.50097-.2177-.12535-.1389-.18795-.3367-.125-.5449.06197-.2048.15808-.3945.28515-.5684.2363-.3224.54986-.5719.93555-.7481.38716-.179.81804-.2665 1.28809-.2666zm5.9619.0938c.3863.0003.6992.3138.6992.7002v5.8691c0 .3864-.3129.6999-.6992.7002h-.2451c-.3864-.0002-.6992-.3137-.6992-.7002v-4.8193l-.5996.3838c-.4532.2895-1.0479-.0364-1.0479-.5742 0-.2318.1185-.448.3135-.5733l1.3623-.875c.1128-.0724.2448-.1113.3789-.1113zm.1006 7.0596.0713-.0205c.0048-.0018.009-.005.0137-.0069-.0274.0111-.0555.0213-.085.0274zm.3984-6.3594v5.8691c0 .065-.0135.1267-.0361.1836.0106-.0268.0205-.0542.0264-.083l.0107-.1006v-5.8691c0-.0341-.0042-.0674-.0107-.0996.0065.0322.0097.0655.0097.0996zm-8.93356 4.9111c.00111.0325.007.0659.01758.0996.01341.0428.02906.0847.0459.126l-.04493-.126c-.01057-.0337-.01722-.0671-.01855-.0996zm3.06936-1.4365h.001c-.0481-.0209-.0987-.0388-.15141-.0547.05241.0159.10261.0339.15041.0547zm-.37307-.1055c-.05193-.0083-.10563-.0149-.16113-.0195.05552.0046.10921.0112.16113.0195zm-.5957-.0381.09668.0098h.00097c-.06439 0-.12554-.0141-.18164-.0371.02705.0111.05473.0213.08399.0273zm-.38282-.4697.00977.0967c.00582.0284.01479.0557.02539.082-.02224-.0552-.03414-.1155-.03418-.1787 0-.0361.00413-.0716.01172-.1054-.00765.0339-.0127.0691-.0127.1054zm1.66019-.9531c-.0513.0746-.112.1412-.1826.1992.0709-.0581.1322-.1244.1835-.1992zm-3.22269-1.0606-.01562.0987c-.00072.0285.00294.0562.00879.083-.01243-.057-.01132-.1183.00781-.1817.00407-.0134.00928-.0267.01367-.04-.00444.0134-.01054.0265-.01465.04z"/><path d="m17 1.25c.4142 0 .75.33579.75.75v1.25h2.25c1.5188 0 2.75 1.23122 2.75 2.75v14c0 1.5188-1.2312 2.75-2.75 2.75h-16c-1.51878 0-2.75-1.2312-2.75-2.75v-14c0-1.51878 1.23122-2.75 2.75-2.75h2.25v-1.25c0-.41421.33579-.75.75-.75s.75.33579.75.75v1.25h8.5v-1.25c0-.41421.3358-.75.75-.75zm-14.25 18.75c0 .6904.55964 1.25 1.25 1.25h16c.6904 0 1.25-.5596 1.25-1.25v-10.25h-18.5zm1.25-15.25c-.69036 0-1.25.55964-1.25 1.25v2.25h18.5v-2.25c0-.69036-.5596-1.25-1.25-1.25z"/></g></svg>

<svg width="24" height="24" viewBox="0 0 24 24" fill="none" xmlns="http://www.w3.org/2000/svg">
<path d="M9.5387 11.5605C10.0212 11.5605 10.4513 11.6513 10.8219 11.8398C11.1903 12.024 11.482 12.2769 11.6891 12.5986C11.8955 12.9195 11.9994 13.2752 11.9996 13.6611L11.9938 13.8203C11.9672 14.1835 11.8396 14.5011 11.6071 14.7656L11.608 14.7666C11.4736 14.9207 11.3165 15.0449 11.1403 15.1426C11.4084 15.2465 11.6354 15.4006 11.817 15.6055L11.9215 15.7324C12.1471 16.0375 12.2565 16.4018 12.2545 16.8154L12.2487 16.9727C12.222 17.3362 12.1022 17.669 11.8883 17.9658L11.8873 17.9648C11.6474 18.2987 11.319 18.5575 10.9088 18.7422C10.4987 18.9278 10.0332 19.0176 9.51819 19.0176C9.01263 19.0175 8.55494 18.9313 8.15002 18.7529C7.74865 18.575 7.42398 18.3233 7.1842 17.9971C7.05524 17.8215 6.95766 17.6305 6.89319 17.4248C6.82783 17.2161 6.88816 17.0164 7.01331 16.876C7.13585 16.7387 7.32073 16.6554 7.51721 16.6553H7.78967C7.98152 16.6553 8.14247 16.7378 8.26819 16.8389C8.39242 16.9389 8.49383 17.0665 8.57385 17.1807C8.5818 17.192 8.59037 17.2038 8.59924 17.2148C8.68721 17.3222 8.80842 17.4104 8.96741 17.4756C9.12551 17.5403 9.30735 17.5752 9.51526 17.5752C9.7379 17.5752 9.92748 17.5363 10.0875 17.4648C10.2479 17.391 10.3664 17.292 10.4508 17.1709C10.5327 17.0532 10.5747 16.9167 10.5729 16.7539V16.75C10.5747 16.5801 10.532 16.4374 10.4479 16.3154C10.3843 16.2233 10.2967 16.1423 10.1813 16.0752L10.0563 16.0127C9.88205 15.937 9.66205 15.8955 9.39124 15.8955H9.26331C8.88839 15.8951 8.58379 15.5908 8.58362 15.2158C8.58362 14.8407 8.88829 14.5365 9.26331 14.5361H9.39124C9.60724 14.5361 9.78679 14.4987 9.9342 14.4307L9.93518 14.4297C10.0865 14.3606 10.1995 14.2664 10.2799 14.1494C10.3573 14.0343 10.397 13.8994 10.3951 13.7383V13.7344C10.397 13.5721 10.3608 13.4419 10.2946 13.3359L10.2926 13.333C10.2262 13.2224 10.1317 13.1349 10.0026 13.0703L10.0016 13.0693C9.87614 13.0058 9.72128 12.9707 9.53186 12.9707C9.34668 12.9708 9.17894 13.0038 9.02698 13.0684C8.8767 13.1323 8.76024 13.2214 8.67346 13.333L8.67249 13.334C8.66438 13.3443 8.65633 13.3547 8.64905 13.3652C8.56903 13.4812 8.46728 13.6135 8.34241 13.7168C8.21622 13.8211 8.05373 13.9062 7.85803 13.9062H7.65588C7.46096 13.9061 7.27751 13.8242 7.15491 13.6885C7.02956 13.5496 6.96696 13.3518 7.02991 13.1436C7.09188 12.9388 7.18799 12.7491 7.31506 12.5752C7.55136 12.2528 7.86492 12.0033 8.25061 11.8271C8.63777 11.6481 9.06865 11.5606 9.5387 11.5605ZM15.5006 11.6543C15.8869 11.6546 16.1998 11.9681 16.1998 12.3545V18.2236C16.1998 18.61 15.8869 18.9235 15.5006 18.9238H15.2555C14.8691 18.9236 14.5563 18.6101 14.5563 18.2236V13.4043L13.9567 13.7881C13.5035 14.0776 12.9088 13.7517 12.9088 13.2139C12.9088 12.9821 13.0273 12.7659 13.2223 12.6406L14.5846 11.7656C14.6974 11.6932 14.8294 11.6543 14.9635 11.6543H15.5006ZM15.6012 18.7139L15.6725 18.6934C15.6773 18.6916 15.6815 18.6884 15.6862 18.6865C15.6588 18.6976 15.6307 18.7078 15.6012 18.7139ZM15.9996 12.3545V18.2236C15.9996 18.2886 15.9861 18.3503 15.9635 18.4072C15.9741 18.3804 15.984 18.353 15.9899 18.3242L16.0006 18.2236V12.3545C16.0006 12.3204 15.9964 12.2871 15.9899 12.2549C15.9964 12.2871 15.9996 12.3204 15.9996 12.3545ZM7.06604 17.2656C7.06715 17.2981 7.07304 17.3315 7.08362 17.3652C7.09703 17.408 7.11268 17.4499 7.12952 17.4912L7.08459 17.3652C7.07402 17.3315 7.06737 17.2981 7.06604 17.2656ZM10.1354 15.8291H10.1364C10.0883 15.8082 10.0377 15.7903 9.98499 15.7744C10.0374 15.7903 10.0876 15.8083 10.1354 15.8291ZM9.76233 15.7236C9.7104 15.7153 9.6567 15.7087 9.6012 15.7041C9.65672 15.7087 9.71041 15.7153 9.76233 15.7236ZM9.16663 15.6855L9.26331 15.6953H9.26428C9.19989 15.6953 9.13874 15.6812 9.08264 15.6582C9.10969 15.6693 9.13737 15.6795 9.16663 15.6855ZM8.78381 15.2158L8.79358 15.3125C8.7994 15.3409 8.80837 15.3682 8.81897 15.3945C8.79673 15.3393 8.78483 15.279 8.78479 15.2158C8.78479 15.1797 8.78892 15.1442 8.79651 15.1104C8.78886 15.1443 8.78381 15.1795 8.78381 15.2158ZM10.444 14.2627C10.3927 14.3373 10.332 14.4039 10.2614 14.4619C10.3323 14.4038 10.3936 14.3375 10.4449 14.2627H10.444ZM7.22131 13.2021L7.20569 13.3008C7.20497 13.3293 7.20863 13.357 7.21448 13.3838C7.20205 13.3268 7.20316 13.2655 7.22229 13.2021C7.22636 13.1887 7.23157 13.1754 7.23596 13.1621C7.23152 13.1755 7.22542 13.1886 7.22131 13.2021Z" fill="black"/>
<path d="M17 1.25C17.4142 1.25 17.75 1.58579 17.75 2V3.25H20C21.5188 3.25 22.75 4.48122 22.75 6V20C22.75 21.5188 21.5188 22.75 20 22.75H4C2.48122 22.75 1.25 21.5188 1.25 20V6C1.25 4.48122 2.48122 3.25 4 3.25H6.25V2C6.25 1.58579 6.58579 1.25 7 1.25C7.41421 1.25 7.75 1.58579 7.75 2V3.25H16.25V2C16.25 1.58579 16.5858 1.25 17 1.25ZM2.75 20C2.75 20.6904 3.30964 21.25 4 21.25H20C20.6904 21.25 21.25 20.6904 21.25 20V9.75H2.75V20ZM4 4.75C3.30964 4.75 2.75 5.30964 2.75 6V8.25H21.25V6C21.25 5.30964 20.6904 4.75 20 4.75H4Z" fill="black"/>
</svg>
